teeny/outline/message.svg

<svg width="15" height="15" viewBox="0 0 15 15" fill="none" xmlns="http://www.w3.org/2000/svg">
<path fill-rule="evenodd" clip-rule="evenodd" d="M5.5 11.4928L7.5 14.4909L9.5 11.4928H13.5C14.053 11.4928 14.5 11.0461 14.5 10.4935V1.49935C14.5 0.946709 14.053 0.5 13.5 0.5H1.5C0.947 0.5 0.5 0.946709 0.5 1.49935V10.4935C0.5 11.0461 0.947 11.4928 1.5 11.4928H5.5Z" stroke="black" stroke-linecap="square" stroke-linejoin="round"/>
</svg>

<svg viewBox="0 0 15 15" xmlns="http://www.w3.org/2000/svg"><path fill="none" fill-rule="evenodd" stroke="#000" stroke-linecap="square" stroke-linejoin="round" d="M5.5 11.49l2 2.99 2-3h4c.55 0 1-.45 1-1v-9c0-.56-.45-1-1-1h-12c-.56 0-1 .44-1 .99v8.99c0 .55.44.99 1 .99h4Z"/></svg>
